scalable/apps/utilities-system-monitor.svg

<?xml version="1.0" encoding="UTF-8" standalone="no"?>
<!-- Generator: Adobe Illustrator 19.0.0, SVG Export Plug-In . SVG Version: 6.00 Build 0)  -->

<svg
   xmlns:dc="http://purl.org/dc/elements/1.1/"
   xmlns:cc="http://creativecommons.org/ns#"
   xmlns:rdf="http://www.w3.org/1999/02/22-rdf-syntax-ns#"
   xmlns:svg="http://www.w3.org/2000/svg"
   xmlns="http://www.w3.org/2000/svg"
   xmlns:xlink="http://www.w3.org/1999/xlink"
   xmlns:sodipodi="http://sodipodi.sourceforge.net/DTD/sodipodi-0.dtd"
   xmlns:inkscape="http://www.inkscape.org/namespaces/inkscape"
   version="1.1"
   id="Capa_1"
   x="0px"
   y="0px"
   viewBox="0 0 48 48"
   xml:space="preserve"
   sodipodi:docname="utilities-system-monitor.svg"
   width="48"
   height="48"
   inkscape:version="0.92.3 (2405546, 2018-03-11)"><metadata
   id="metadata41"><rdf:RDF><cc:Work
       rdf:about=""><dc:format>image/svg+xml</dc:format><dc:type
         rdf:resource="http://purl.org/dc/dcmitype/StillImage" /><dc:title /></cc:Work></rdf:RDF></metadata><defs
   id="defs39"><linearGradient
     inkscape:collect="always"
     id="linearGradient967"><stop
       style="stop-color:#000000;stop-opacity:1;"
       offset="0"
       id="stop963" /><stop
       style="stop-color:#000000;stop-opacity:0;"
       offset="1"
       id="stop965" /></linearGradient><linearGradient
     id="linearGradient2898"
     x1="30"
     x2="30"
     y1="3.0411"
     y2="27.957001"
     gradientUnits="userSpaceOnUse"
     xlink:href="#linearGradient3341"
     gradientTransform="matrix(1.0045,0,0,1.0034,-6.1353502,-0.60785674)" /><linearGradient
     id="linearGradient3341"><stop
       id="stop3343"
       style="stop-color:#fff"
       offset="0" /><stop
       id="stop3345"
       style="stop-color:#fff;stop-opacity:0"
       offset="1" /></linearGradient><radialGradient
     id="radialGradient2896"
     cx="30"
     cy="33.188"
     r="4.6875"
     gradientTransform="matrix(1.528,-7.0647e-7,2.1309e-7,0.46087,-21.838749,14.148502)"
     gradientUnits="userSpaceOnUse"
     xlink:href="#linearGradient5060" /><linearGradient
     id="linearGradient5060"><stop
       id="stop5062"
       offset="0" /><stop
       id="stop5064"
       style="stop-opacity:0"
       offset="1" /></linearGradient><linearGradient
     id="linearGradient2894"
     x1="38"
     x2="43"
     y1="39"
     y2="38.599998"
     gradientUnits="userSpaceOnUse"
     xlink:href="#linearGradient5060"
     gradientTransform="translate(-5.9997502,-0.55649774)" /><linearGradient
     id="linearGradient2892"
     x1="22"
     x2="17"
     y1="39"
     y2="37.438"
     gradientUnits="userSpaceOnUse"
     xlink:href="#linearGradient5060"
     gradientTransform="translate(-5.9997502,-0.55649774)" /><radialGradient
     id="radialGradient2888"
     cx="26.375999"
     cy="12.313"
     r="8"
     gradientTransform="matrix(1.6402,-0.13258,0.12811,1.5849,-24.395749,-5.7838982)"
     gradientUnits="userSpaceOnUse"
     xlink:href="#linearGradient6954" /><linearGradient
     id="linearGradient6954"><stop
       id="stop6960"
       style="stop-color:#f5f5f5"
       offset="0" /><stop
       id="stop6962"
       style="stop-color:#d2d2d2"
       offset="1" /></linearGradient><linearGradient
     id="linearGradient2890"
     x1="30"
     x2="30"
     y1="5"
     y2="44.679001"
     gradientUnits="userSpaceOnUse"
     xlink:href="#linearGradient3785"
     gradientTransform="translate(-5.9997502,-0.55649774)" /><linearGradient
     id="linearGradient3785"><stop
       id="stop3787"
       style="stop-color:#bdbdbd"
       offset="0" /><stop
       id="stop3789"
       style="stop-color:#8c8c8c"
       offset="1" /></linearGradient><linearGradient
     id="linearGradient2886"
     x1="24.787001"
     x2="24.875"
     y1="53.868999"
     y2="83.5"
     gradientUnits="userSpaceOnUse"
     xlink:href="#linearGradient3341"
     gradientTransform="translate(-1.8747502,-40.056498)" /><radialGradient
     id="radialGradient2882"
     cx="25"
     cy="28.66"
     r="16"
     gradientTransform="matrix(1.3125,0,0,0.37327,-13.812249,19.745502)"
     gradientUnits="userSpaceOnUse"
     xlink:href="#linearGradient6954" /><linearGradient
     id="linearGradient2884"
     x1="30"
     x2="30"
     y1="25.084999"
     y2="45"
     gradientUnits="userSpaceOnUse"
     xlink:href="#linearGradient3785"
     gradientTransform="translate(-5.9997502,-0.55649774)" /><linearGradient
     inkscape:collect="always"
     xlink:href="#linearGradient967"
     id="linearGradient969"
     x1="12.611765"
     y1="8.9647064"
     x2="43.341175"
     y2="39.55294"
     gradientUnits="userSpaceOnUse" /></defs><sodipodi:namedview
   pagecolor="#ffffff"
   bordercolor="#666666"
   borderopacity="1"
   objecttolerance="10"
   gridtolerance="10"
   guidetolerance="10"
   inkscape:pageopacity="0"
   inkscape:pageshadow="2"
   inkscape:window-width="1366"
   inkscape:window-height="719"
   id="namedview37"
   showgrid="false"
   showguides="true"
   inkscape:guide-bbox="true"
   inkscape:zoom="10.625"
   inkscape:cx="24"
   inkscape:cy="24"
   inkscape:window-x="0"
   inkscape:window-y="25"
   inkscape:window-maximized="1"
   inkscape:current-layer="Capa_1"
   inkscape:snap-global="true" />


<g
   id="g6"
   transform="translate(0,-464)">
</g>
<g
   id="g8"
   transform="translate(0,-464)">
</g>
<g
   id="g10"
   transform="translate(0,-464)">
</g>
<g
   id="g12"
   transform="translate(0,-464)">
</g>
<g
   id="g14"
   transform="translate(0,-464)">
</g>
<g
   id="g16"
   transform="translate(0,-464)">
</g>
<g
   id="g18"
   transform="translate(0,-464)">
</g>
<g
   id="g20"
   transform="translate(0,-464)">
</g>
<g
   id="g22"
   transform="translate(0,-464)">
</g>
<g
   id="g24"
   transform="translate(0,-464)">
</g>
<g
   id="g26"
   transform="translate(0,-464)">
</g>
<g
   id="g28"
   transform="translate(0,-464)">
</g>
<g
   id="g30"
   transform="translate(0,-464)">
</g>
<g
   id="g32"
   transform="translate(0,-464)">
</g>
<g
   id="g34"
   transform="translate(0,-464)">
</g>
<g
   id="g862"><path
     id="path850"
     d="m 24.000976,0.3457035 c -5.833461,0 -10.522198,1.1203776 -13.935546,3.3320313 -4.1011933,2.6574037 -6.2695315,6.9015122 -6.2695315,12.2714832 0,7.226706 5.8062658,16.88549 7.5859375,19.673828 2.031747,3.183082 4.250107,6.079783 6.246093,8.15625 2.542362,2.644284 4.56815,3.875 6.373047,3.875 1.804991,0 3.829009,-1.230625 6.371093,-3.875 1.995894,-2.076376 4.214349,-4.973077 6.246094,-8.15625 C 38.397835,32.8348 44.204101,23.175924 44.204101,15.949219 44.204193,10.57934 42.037899,6.3352307 37.936523,3.6777348 34.523359,1.4660811 29.834346,0.3457035 24.000976,0.3457035 Z"
     style="fill:#5d536c;stroke-width:0.0924025"
     inkscape:connector-curvature="0" /><path
     inkscape:connector-curvature="0"
     id="path961"
     d="m 30.919922,43.0625 c 1.853296,-2.021656 3.844065,-4.53601 5.697266,-7.439453 0.889835,-1.394123 2.786912,-4.505287 4.460932,-8.171875 0.83702,-1.833294 1.61927,-3.806143 2.19141,-5.771484 0.15853,-0.544541 0.13468,-1.047464 0.25781,-1.587891 L 41.31836,17.882812 28.464844,18.484375 27.859375,19.199219 22.871094,14.210938 22.503906,14.509766 15.90625,8.09375 13.564453,18.484375 6.681641,18.824219 Z"
     style="opacity:0.65;fill:url(#linearGradient969);fill-opacity:1;stroke:none;stroke-width:1px;stroke-linecap:butt;stroke-linejoin:miter;stroke-opacity:1" /><path
     id="path3477"
     d="m 7.0350063,18.483404 h 6.5288327 l 1.986742,-9.933711 3.973486,14.900569 2.980112,-8.940344 2.980113,5.960228 2.980113,-1.986742 h 12.500589"
     style="fill:none;stroke:#ffffff;stroke-width:0.99337113px;stroke-linecap:round;stroke-linejoin:round"
     inkscape:connector-curvature="0" /><path
     inkscape:connector-curvature="0"
     id="path4588"
     d="m 24.000977,0.345704 c -5.833461,0 -10.522199,1.1203783 -13.935547,3.3320313 -4.101193,2.657404 -6.269532,6.9015117 -6.269532,12.2714827 0,7.226706 5.806266,16.88549 7.585938,19.673828 2.031747,3.183082 4.250107,6.079783 6.246094,8.15625 2.542362,2.644284 4.56815,3.875 6.373047,3.875 1.804991,0 3.829009,-1.230625 6.371093,-3.875 1.995894,-2.076376 4.214348,-4.973077 6.246094,-8.15625 C 38.397835,32.8348 44.204102,23.175924 44.204102,15.94922 44.204194,10.57934 42.037898,6.3352314 37.936524,3.6777353 34.52336,1.4660823 29.834346,0.345704 24.000977,0.345704 Z m 0,0.14453126 c 2.112445,0.084873 4.119293,0.27168527 5.875,0.69140624 1.164035,0.2782756 2.252954,0.6269196 3.263671,1.0429688 1.010718,0.4160492 1.943585,0.9002116 2.796876,1.453125 1.025343,0.6643739 1.929139,1.4277032 2.708984,2.2832031 0.779844,0.8554999 1.435774,1.803713 1.96289,2.8359375 0.527119,1.0322245 0.926199,2.1492021 1.19336,3.3437491 0.267161,1.194547 0.402367,2.466124 0.402344,3.808593 0,1.806677 -0.363402,3.765127 -0.935547,5.730469 -0.572145,1.965342 -1.352441,3.93819 -2.189453,5.771484 -1.674026,3.66659 -3.571102,6.777752 -4.460938,8.171875 -2.031746,3.183173 -4.2502,6.079876 -6.246094,8.15625 -1.271042,1.322188 -2.413501,2.291486 -3.46289,2.929688 -0.319034,0.194026 -0.618451,0.306539 -0.910156,0.390625 -0.291517,-0.08404 -0.58956,-0.196919 -0.908204,-0.390625 -1.049854,-0.638215 -2.191709,-1.607546 -3.46289,-2.929688 -1.995987,-2.076467 -4.214347,-4.973168 -6.246094,-8.15625 C 12.492,34.228877 10.594924,31.117748 8.920898,27.451171 8.083886,25.617883 7.30359,23.645021 6.731445,21.679687 6.159301,19.714353 5.795899,17.755895 5.795898,15.949218 c 0,-1.342492 0.134981,-2.614034 0.402344,-3.808593 0.267363,-1.194559 0.667946,-2.3115245 1.195313,-3.3437491 0.527367,-1.0322246 1.182878,-1.980449 1.96289,-2.8359375 0.780012,-0.8554885 1.683687,-1.6188521 2.708985,-2.2832031 0.853337,-0.5529133 1.786156,-1.0370759 2.796875,-1.453125 1.010719,-0.4160492 2.099654,-0.7646932 3.263672,-1.0429688 1.755679,-0.41972098 3.762539,-0.60653321 5.875,-0.69140624 z"
     style="opacity:0.2;fill:#000000;stroke-width:0.0924025" /></g></svg>

<svg xmlns="http://www.w3.org/2000/svg" xmlns:xlink="http://www.w3.org/1999/xlink" width="48" height="48"><defs><linearGradient id="e"><stop offset="0"/><stop offset="1" stop-opacity="0"/></linearGradient><linearGradient id="a"><stop offset="0" stop-color="#fff"/><stop offset="1" stop-color="#fff" stop-opacity="0"/></linearGradient><linearGradient id="b"><stop offset="0"/><stop offset="1" stop-opacity="0"/></linearGradient><linearGradient id="c"><stop offset="0" stop-color="#f5f5f5"/><stop offset="1" stop-color="#d2d2d2"/></linearGradient><linearGradient id="d"><stop offset="0" stop-color="#bdbdbd"/><stop offset="1" stop-color="#8c8c8c"/></linearGradient><linearGradient xlink:href="#e" id="f" x1="12.61" y1="8.96" x2="43.34" y2="39.55" gradientUnits="userSpaceOnUse"/></defs><path d="M24 .35c-5.83 0-10.52 1.12-13.93 3.33-4.1 2.66-6.27 6.9-6.27 12.27 0 7.23 5.8 16.88 7.58 19.67a54.48 54.48 0 0 0 6.25 8.16c2.54 2.64 4.57 3.87 6.37 3.87 1.8 0 3.83-1.23 6.37-3.87 2-2.08 4.22-4.97 6.25-8.16 1.78-2.79 7.58-12.44 7.58-19.67 0-5.37-2.16-9.61-6.26-12.27C34.52 1.47 29.84.35 24 .35z" fill="#5d536c"/><path d="M30.92 43.06a54.51 54.51 0 0 0 5.7-7.44c.89-1.4 2.78-4.5 4.46-8.17a43.2 43.2 0 0 0 2.19-5.77c.16-.54.13-1.05.26-1.59l-2.21-2.2-12.86.6-.6.7-4.99-4.98-.37.3-6.6-6.42-2.34 10.4-6.88.33z" opacity=".65" fill="url(#f)"/><path d="M7.04 18.48h6.52l2-9.93 3.96 14.9 2.98-8.94 2.98 5.96 2.98-1.99h12.5" fill="none" stroke="#fff" stroke-width=".99" stroke-linecap="round" stroke-linejoin="round"/><path d="M24 .35c-5.83 0-10.52 1.12-13.93 3.33-4.1 2.66-6.27 6.9-6.27 12.27 0 7.23 5.8 16.88 7.58 19.67a54.48 54.48 0 0 0 6.25 8.16c2.54 2.64 4.57 3.87 6.37 3.87 1.8 0 3.83-1.23 6.37-3.87 2-2.08 4.22-4.97 6.25-8.16 1.78-2.79 7.58-12.44 7.58-19.67 0-5.37-2.16-9.61-6.26-12.27C34.52 1.47 29.84.35 24 .35zm0 .14c2.11.09 4.12.27 5.88.7 1.16.27 2.25.62 3.26 1.03 1.01.42 1.94.9 2.8 1.46A12.92 12.92 0 0 1 40.6 8.8c.53 1.03.92 2.15 1.2 3.34.26 1.2.4 2.47.4 3.8 0 1.82-.37 3.77-.94 5.74a43.19 43.19 0 0 1-2.2 5.77 69.59 69.59 0 0 1-4.45 8.17 54.47 54.47 0 0 1-6.25 8.16 17.98 17.98 0 0 1-3.46 2.93c-.32.2-.62.3-.91.39-.3-.08-.6-.2-.9-.4-1.06-.63-2.2-1.6-3.47-2.92-2-2.08-4.22-4.97-6.25-8.16a69.6 69.6 0 0 1-4.46-8.17 43.19 43.19 0 0 1-2.19-5.77 20.93 20.93 0 0 1-.93-5.73c0-1.34.13-2.61.4-3.8.27-1.2.67-2.32 1.2-3.35a12.92 12.92 0 0 1 4.67-5.12 17.1 17.1 0 0 1 2.8-1.46c1-.41 2.1-.76 3.26-1.04C19.88.76 21.89.58 24 .5z" opacity=".2"/></svg>
